icons/networks/logos/artis.svg

<svg width="87" height="20" viewBox="0 0 87 20" fill="none" xmlns="http://www.w3.org/2000/svg">
<path fill-rule="evenodd" clip-rule="evenodd" d="M22.0171 8.47449C22.056 8.53413 22.0849 8.59976 22.1026 8.66878C22.1117 8.70045 22.1175 8.73302 22.1197 8.76592C22.126 8.85655 22.1083 8.94724 22.0684 9.02878L17.7493 18.6002V18.6459C17.7135 18.6986 17.6692 18.745 17.6182 18.7831C17.5659 18.8136 17.5105 18.8385 17.453 18.8573H17.3675L6.92308 19.8573H6.8661C6.78313 19.856 6.70145 19.8365 6.62678 19.8002C6.56252 19.762 6.50638 19.7115 6.46154 19.6516L0.0626781 11.3888V11.3545V11.3202C0.0281682 11.2566 0.00684806 11.1866 0 11.1145H0.051282C0.0402234 11.0502 0.0402234 10.9845 0.051282 10.9202C0.0537527 10.9089 0.0537527 10.8972 0.051282 10.8859C0.054326 10.8766 0.054326 10.8666 0.051282 10.8573L4.2906 1.33164C4.32444 1.2595 4.37297 1.19527 4.43305 1.14307L4.51852 1.10878C4.58705 1.06971 4.66254 1.04448 4.74074 1.03449L15.1738 0.000207958H15.2536C15.3509 -0.00271739 15.4466 0.0252838 15.5271 0.0802079C15.5916 0.108037 15.6498 0.148883 15.698 0.200208C15.7 0.209626 15.7 0.219361 15.698 0.228779L22.0171 8.47449ZM16.4672 3.11449L17.7607 8.22306H20.3932L16.4672 3.11449ZM9.21367 15.3259L16.7464 17.5145V8.86306L14.8718 1.43449L7.23077 5.71449L1.53276 11.0002L9.21367 15.3259ZM7.12251 4.47449L12.5812 1.40592L5.73789 2.08592L7.12251 4.47449ZM6.19373 5.14306L4.8661 2.85735L2.21652 8.81735L6.14815 5.17735L6.19373 5.14306ZM2.74644 12.9945L6.83761 18.2859L8.19943 16.0631L2.74644 12.9945ZM14.302 17.9888L9.23647 16.5145L7.97721 18.6231L14.302 17.9888ZM17.886 9.36592V15.6002L20.6724 9.36592H17.886ZM13.3219 6.00043C13.6366 6.00043 13.8917 6.25627 13.8917 6.57186C13.8917 6.88745 13.6366 7.14329 13.3219 7.14329H9.98291L12.0513 9.63472C12.2273 9.8466 12.2273 10.1543 12.0513 10.3661L9.98291 12.8576H13.3219C13.6366 12.8576 13.8917 13.1134 13.8917 13.429C13.8917 13.7446 13.6366 14.0004 13.3219 14.0004H8.76353C8.54435 13.9998 8.34496 13.8732 8.25071 13.6747C8.15439 13.4739 8.18331 13.2352 8.32479 13.0633L10.8718 10.0004L8.32479 6.93758C8.1832 6.7671 8.1528 6.52984 8.24683 6.32901C8.34085 6.12817 8.5423 6.00007 8.76353 6.00043H13.3219ZM62.6268 3.99121L60.2385 2.93294V12.0277H62.6268V3.99121ZM32.3664 2.75569L29.87 3.83498L27.7778 12.0277H30.2016L30.7589 9.76321L31.1948 7.74657L32.3664 2.75569ZM36.3429 12.0277H38.9681L34.2411 0L32.2872 1.14539L36.3429 12.0277ZM56.6646 2.48906H66.1837V0.41985H56.6646V2.48906ZM70.6295 12.0277H73.02V0.420601H70.6295V12.0277ZM80.3048 3.34002C80.0783 2.82629 79.3634 1.62307 79.0318 1.26931C78.5263 1.55247 77.8477 2.41996 77.8477 3.90558C77.8477 5.79904 78.5278 6.48928 80.4106 6.96696L82.5902 7.53327C84.194 7.95763 84.2813 8.20548 84.2813 8.66514C84.2753 8.8001 84.2564 8.93415 84.2251 9.06546C84.157 9.31482 83.952 9.73617 83.1438 10.0036C82.6117 10.1562 82.0619 10.2358 81.5089 10.2401C80.4284 10.2401 78.7195 10.0456 78.0223 9.88638V11.8151C78.6499 12.045 80.2019 12.2222 81.3172 12.2222C81.6495 12.2222 82.0662 12.2072 82.4703 12.1711C82.7101 12.1636 84.2821 12.0833 85.3959 11.2826L85.4204 11.2644L85.4205 11.2643C85.4484 11.2437 85.4773 11.2224 85.5018 11.1993C85.8101 10.9629 86.0629 10.6599 86.2419 10.3122C86.2477 10.3004 86.2525 10.2892 86.2575 10.2779C86.2601 10.2719 86.2627 10.2659 86.2655 10.2597C86.4987 9.80902 86.6667 9.20816 86.6667 8.39851C86.6667 6.5764 85.9517 5.90344 83.4761 5.24925L81.5926 4.77157C80.3344 4.43509 80.233 4.22254 80.233 3.70955C80.2393 3.58322 80.2627 3.45837 80.3026 3.33852L80.3048 3.34002ZM83.1268 2.2059V2.20741C81.8716 2.20741 80.9302 2.36663 80.3026 2.63176C80.4069 2.06545 80.8428 0.809657 81.1566 0.41985C81.8062 0.294544 82.4656 0.229434 83.1268 0.225322C84.1733 0.225322 85.4463 0.367275 86.0561 0.508477V2.45376C85.0857 2.30965 84.1073 2.22687 83.1268 2.2059ZM50.1132 12.0607L48.7642 8.34487C48.3577 8.37198 47.9432 8.37111 47.539 8.37026L47.3297 8.36997H45.3729V12.057H42.9801V2.90891L45.3729 3.8853V6.38413H47.1898C48.0631 6.38413 49.1289 6.2602 49.4782 6.04765C49.8793 5.79904 50.1243 5.14335 50.1243 4.43434C50.1243 3.15827 49.513 2.50258 47.5214 2.50258H44.3597L42.3688 2.21867V0.428112H47.7345C51.6119 0.428112 52.5378 1.95204 52.5378 4.50569C52.5378 5.39252 52.215 6.98069 51.0558 7.78518L52.8841 12.057L50.1132 12.0607ZM30.7917 16.9118C30.4943 16.378 30.0082 16.1111 29.3333 16.1111C29.0512 16.1111 28.8034 16.1616 28.5899 16.2627C28.3764 16.3637 28.2124 16.5 28.098 16.6716C27.9837 16.8431 27.9265 17.03 27.9265 17.232C27.9265 17.5256 28.0313 17.7544 28.241 17.9183C28.4507 18.0822 28.8072 18.2081 29.3105 18.2958C29.6993 18.3644 29.97 18.4483 30.1226 18.5474C30.2751 18.6465 30.3513 18.78 30.3513 18.9477C30.3513 19.146 30.2636 19.2994 30.0882 19.4081C29.9129 19.5167 29.6765 19.5711 29.3791 19.5711C29.0779 19.5711 28.8272 19.5091 28.627 19.3852C28.4269 19.2613 28.2753 19.0869 28.1724 18.8619L27.7778 19.1822C27.9188 19.43 28.1238 19.6283 28.3926 19.777C28.6614 19.9257 28.9864 20 29.3676 20C29.6574 20 29.9129 19.9552 30.134 19.8656C30.3551 19.776 30.5257 19.6502 30.6458 19.4882C30.7659 19.3261 30.826 19.1383 30.826 18.9248C30.826 18.6274 30.7221 18.3949 30.5143 18.2271C30.3065 18.0594 29.9529 17.9336 29.4534 17.8497C29.1865 17.8039 28.9778 17.7515 28.8272 17.6924C28.6766 17.6333 28.5689 17.5637 28.5041 17.4837C28.4393 17.4036 28.4069 17.3026 28.4069 17.1806C28.4069 16.9937 28.4898 16.8403 28.6556 16.7202C28.8215 16.6001 29.0493 16.54 29.3391 16.54C29.6136 16.54 29.8299 16.5925 29.9882 16.6973C30.1464 16.8022 30.2827 16.9804 30.3971 17.232L30.7917 16.9118ZM32.2974 19.9428H32.7549V16.1683H32.2974V19.9428ZM37.5719 19.9428V18.0384H35.9534V18.4673H37.1544V18.5989C37.1544 18.9115 37.0505 19.1517 36.8427 19.3194C36.6349 19.4872 36.3671 19.5711 36.0392 19.5711C35.6236 19.5711 35.3053 19.4386 35.0842 19.1736C34.863 18.9086 34.7525 18.5359 34.7525 18.0556C34.7525 17.7429 34.8058 17.4732 34.9126 17.2463C35.0193 17.0195 35.169 16.845 35.3615 16.723C35.5541 16.601 35.778 16.54 36.0335 16.54C36.3004 16.54 36.5282 16.5972 36.7169 16.7116C36.9056 16.826 37.0419 16.9899 37.1258 17.2034L37.5433 16.9747C37.3946 16.6811 37.1992 16.4638 36.9571 16.3227C36.715 16.1816 36.4071 16.1111 36.0335 16.1111C35.6827 16.1111 35.3749 16.1902 35.1099 16.3484C34.8449 16.5067 34.639 16.7326 34.4922 17.0261C34.3455 17.3197 34.2721 17.6629 34.2721 18.0556C34.2721 18.4521 34.3435 18.7962 34.4865 19.0878C34.6295 19.3795 34.8325 19.6044 35.0956 19.7627C35.3587 19.9209 35.6675 20 36.0221 20C36.3042 20 36.5453 19.9514 36.7455 19.8542C36.9457 19.7569 37.101 19.6168 37.2116 19.4338L37.2288 19.9428H37.5719ZM42.366 19.9428H42.8007V16.1683H42.0972L41.2737 18.4673L40.982 19.4052H40.9706L40.6846 18.4616L39.8554 16.1683H39.152V19.9428H39.5866V17.5694L39.5351 16.5743H39.5409L40.7819 19.9428H41.1708L42.4118 16.5743H42.4175L42.366 17.5694V19.9428ZM44.9583 18.8962H46.6683L47.0686 19.9428H47.5547L46.0907 16.1683H45.5474L44.0776 19.9428H44.558L44.9583 18.8962ZM45.9935 17.1291L46.5025 18.4673H45.1242L45.6389 17.1119L45.8047 16.6029H45.8162L45.9935 17.1291ZM54.2778 19.9428H54.7124V16.1683H54.009L53.1855 18.4673L52.8938 19.4052H52.8824L52.5964 18.4616L51.7672 16.1683H51.0637V19.9428H51.4984V17.5694L51.4469 16.5743H51.4526L52.6936 19.9428H53.0825L54.3235 16.5743H54.3293L54.2778 17.5694V19.9428ZM56.8701 18.8962H58.5801L58.9804 19.9428H59.4665L58.0025 16.1683H57.4592L55.9894 19.9428H56.4698L56.8701 18.8962ZM57.9052 17.1291L58.4142 18.4673H57.0359L57.5507 17.1119L57.7165 16.6029H57.7279L57.9052 17.1291ZM60.7435 19.9428H61.201V16.1683H60.7435V19.9428ZM65.3431 19.9428H65.9093V16.1683H65.4747V18.8333L65.4976 19.4395H65.4918L65.0858 18.6846L63.5131 16.1683H62.9469V19.9428H63.3815V17.2778L63.3587 16.6716H63.3644L63.7647 17.415L65.3431 19.9428ZM70.0515 19.9428H70.6176V16.1683H70.183V18.8333L70.2059 19.4395H70.2002L69.7941 18.6846L68.2214 16.1683H67.6552V19.9428H68.0899V17.2778L68.067 16.6716H68.0727L68.473 17.415L70.0515 19.9428ZM75.0972 19.9428V19.5139H72.8211V18.2443H74.5253V17.8154H72.8211V16.5972H75.0114V16.1683H72.3636V19.9428H75.0972ZM77.8611 16.5972H79.1765V16.1683H76.0882V16.5972H77.4036V19.9428H77.8611V16.5972Z" fill="#129C6B"/>
</svg>

<svg viewBox="0 0 87 20" fill="none" xmlns="http://www.w3.org/2000/svg">
  <path fill-rule="evenodd" clip-rule="evenodd" d="M22.017 8.474a.652.652 0 0 1 .103.292.517.517 0 0 1-.052.263L17.75 18.6v.046a.573.573 0 0 1-.13.137.856.856 0 0 1-.166.074h-.085l-10.445 1h-.057a.568.568 0 0 1-.24-.057.57.57 0 0 1-.164-.148l-6.4-8.263v-.069A.538.538 0 0 1 0 11.114h.051a.573.573 0 0 1 0-.194.08.08 0 0 0 0-.034.046.046 0 0 0 0-.029l4.24-9.525a.571.571 0 0 1 .142-.189l.086-.034a.603.603 0 0 1 .222-.075L15.174 0h.08a.46.46 0 0 1 .273.08.514.514 0 0 1 .171.12c.002.01.002.02 0 .029l6.32 8.245Zm-5.55-5.36 1.294 5.11h2.632l-3.926-5.11ZM9.214 15.326l7.532 2.189V8.863l-1.874-7.429-7.641 4.28L1.533 11l7.68 4.326ZM7.123 4.474l5.458-3.068-6.843.68 1.385 2.388Zm-.93.67L4.867 2.856l-2.65 5.96 3.932-3.64.046-.034Zm-3.447 7.85 4.092 5.292 1.361-2.223-5.453-3.068Zm11.556 4.995-5.066-1.474-1.259 2.108 6.325-.634Zm3.584-8.623V15.6l2.786-6.234h-2.786ZM13.322 6a.57.57 0 0 1 0 1.143h-3.34l2.07 2.492a.573.573 0 0 1 0 .731l-2.07 2.492h3.34a.57.57 0 0 1 0 1.142H8.764a.573.573 0 0 1-.439-.937L10.872 10 8.325 6.938A.573.573 0 0 1 8.764 6h4.558Zm49.305-2.009-2.389-1.058v9.095h2.389V3.99Zm-30.26-1.235L29.87 3.835l-2.092 8.193h2.424l.557-2.265.436-2.016 1.171-4.991Zm3.976 9.272h2.625L34.241 0l-1.954 1.145 4.056 10.883Zm20.322-9.539h9.519V.42h-9.52v2.07Zm13.964 9.539h2.391V.42h-2.39v11.607Zm9.676-8.688c-.227-.514-.942-1.717-1.273-2.07-.506.282-1.184 1.15-1.184 2.636 0 1.893.68 2.583 2.563 3.061l2.18.566c1.603.425 1.69.672 1.69 1.132a2.136 2.136 0 0 1-.056.4c-.068.25-.273.671-1.081.939a6.102 6.102 0 0 1-1.635.236c-1.08 0-2.79-.194-3.487-.354v1.93c.628.229 2.18.406 3.295.406.333 0 .75-.015 1.153-.05.24-.008 1.812-.089 2.926-.89l.024-.018c.028-.02.057-.042.082-.065a2.64 2.64 0 0 0 .74-.887l.015-.034.008-.018c.234-.451.402-1.052.402-1.861 0-1.823-.715-2.496-3.19-3.15l-1.884-.477c-1.259-.337-1.36-.55-1.36-1.062.006-.127.03-.252.07-.371l.002.001Zm2.822-1.134v.001c-1.255 0-2.197.16-2.824.425.104-.567.54-1.822.854-2.212.65-.125 1.309-.19 1.97-.195 1.046 0 2.32.142 2.93.283v1.946a23.339 23.339 0 0 0-2.93-.248ZM50.113 12.06l-1.349-3.716c-.406.027-.82.026-1.225.025h-2.166v3.687H42.98V2.909l2.393.976v2.5h1.817c.873 0 1.939-.125 2.288-.337.401-.249.646-.905.646-1.614 0-1.276-.611-1.931-2.603-1.931H44.36l-1.991-.284V.429h5.365c3.878 0 4.804 1.523 4.804 4.077 0 .887-.323 2.475-1.482 3.28l1.828 4.271-2.77.004Zm-19.321 4.85c-.298-.533-.784-.8-1.459-.8-.282 0-.53.05-.743.152a1.18 1.18 0 0 0-.492.409.99.99 0 0 0-.171.56c0 .294.104.522.314.686.21.164.566.29 1.07.378.388.068.659.152.812.251.152.1.228.233.228.4a.513.513 0 0 1-.263.461c-.175.109-.412.163-.709.163-.301 0-.552-.062-.752-.186a1.173 1.173 0 0 1-.455-.523l-.394.32c.14.248.346.446.615.595.268.149.593.223.975.223.29 0 .545-.045.766-.134a1.16 1.16 0 0 0 .512-.378c.12-.162.18-.35.18-.563 0-.298-.104-.53-.312-.698-.207-.168-.561-.293-1.06-.377a3.323 3.323 0 0 1-.627-.158.77.77 0 0 1-.323-.208.466.466 0 0 1-.097-.303c0-.187.083-.34.249-.46.166-.12.393-.181.683-.181.275 0 .49.053.65.157.157.105.294.283.408.535l.395-.32Zm1.505 3.032h.458v-3.775h-.458v3.775Zm5.275 0v-1.905h-1.619v.43h1.201v.13c0 .314-.104.554-.311.721-.208.168-.476.252-.804.252-.415 0-.734-.132-.955-.397-.221-.265-.332-.638-.332-1.118 0-.313.054-.583.16-.81.107-.226.257-.401.45-.523.192-.122.416-.183.671-.183.267 0 .495.057.684.172a.974.974 0 0 1 .409.491l.417-.228a1.524 1.524 0 0 0-.586-.652c-.242-.141-.55-.212-.924-.212-.35 0-.658.08-.923.237-.265.159-.471.385-.618.678-.146.294-.22.637-.22 1.03 0 .396.072.74.215 1.032.142.291.346.516.609.675.263.158.572.237.926.237.282 0 .523-.049.724-.146.2-.097.355-.237.466-.42l.017.509h.343Zm4.794 0h.435v-3.775h-.704l-.823 2.3-.292.937h-.011l-.286-.943-.83-2.294h-.703v3.775h.435v-2.374l-.052-.995h.006l1.24 3.369h.39l1.24-3.369h.006l-.051.995v2.374Zm2.592-1.047h1.71l.4 1.047h.487l-1.464-3.775h-.544l-1.47 3.775h.481l.4-1.047Zm1.035-1.767.51 1.338h-1.379l.515-1.355.166-.51h.011l.177.527Zm8.285 2.814h.434v-3.775h-.703l-.824 2.3-.291.937h-.012l-.286-.943-.829-2.294h-.703v3.775h.434v-2.374l-.051-.995h.006l1.24 3.369h.39l1.24-3.369h.006l-.051.995v2.374Zm2.592-1.047h1.71l.4 1.047h.487l-1.465-3.775h-.543l-1.47 3.775h.48l.401-1.047Zm1.035-1.767.51 1.338h-1.38l.516-1.355.166-.51h.01l.178.527Zm2.838 2.814h.458v-3.775h-.458v3.775Zm4.6 0h.566v-3.775h-.434v2.665l.023.607h-.006l-.406-.755-1.573-2.517h-.566v3.775h.434v-2.665l-.022-.606h.005l.4.743 1.58 2.528Zm4.709 0h.566v-3.775h-.435v2.665l.023.607H70.2l-.406-.755-1.573-2.517h-.566v3.775h.435v-2.665l-.023-.606h.006l.4.743 1.579 2.528Zm5.045 0v-.43h-2.276v-1.269h1.704v-.429h-1.704v-1.218h2.19v-.429h-2.647v3.775h2.733Zm2.764-3.346h1.316v-.429h-3.089v.43h1.316v3.345h.457v-3.346Z" fill="#129C6B"/>
</svg>
